packages/core/src/svgs/bigsb.svg

<svg width="24" height="24" viewBox="0 0 24 24" fill="none" xmlns="http://www.w3.org/2000/svg">
<g clip-path="url(#clip0_31_7015)">
<path d="M0 0H24V24H0V0Z" fill="url(#paint0_linear_31_7015)"/>
<path fill-rule="evenodd" clip-rule="evenodd" d="M12.4457 16.2343C12.6215 15.0771 12.9857 13.95 13.6029 12.9685C14.2886 11.94 15.2015 11.28 16.3457 10.9885C17.2929 10.7485 18.2529 10.6971 19.23 10.8343C19.2729 10.8385 19.2857 10.8257 19.2857 10.7871C19.2526 10.1696 19.0619 9.57092 18.7318 9.04802C18.4017 8.52512 17.9432 8.09546 17.4 7.79997C16.2172 7.13997 14.6786 7.15711 13.4143 7.60711C12.0729 8.1814 11.43 9.22711 10.71 10.4357C10.47 10.8385 10.2557 11.1771 9.97289 11.4471C9.33004 12.0471 7.91575 12.2185 7.73575 11.0314C7.73575 11.01 7.74432 11.0014 7.76146 10.9971H7.93289C8.01861 10.9971 8.10003 10.9971 8.16861 10.9885C9.29146 10.8 9.78003 9.38997 9.91718 8.41283C9.91718 8.3914 9.91289 8.38283 9.89575 8.38283C9.39432 8.40854 8.89718 8.42568 8.39575 8.44283C8.03146 8.4514 7.77004 8.48568 7.62004 8.5414C7.24289 8.68711 6.98575 8.96997 6.85289 9.40711C6.84861 9.42854 6.84003 9.42854 6.83575 9.40711C6.78641 9.22753 6.69987 9.06033 6.58173 8.91636C6.4636 8.77239 6.31652 8.65486 6.15004 8.5714C6.01488 8.50614 5.87022 8.46274 5.72146 8.44283L3.88289 8.31425C3.86575 8.31425 3.85718 8.32711 3.85718 8.34425C3.90861 9.32997 4.34575 10.62 5.37861 10.9028C5.50718 10.9371 5.67432 10.9543 5.83289 10.9714L6.04718 10.9928C6.06432 10.9928 6.07289 11.0057 6.06861 11.0228C5.98592 12.2841 6.40141 13.5275 7.22575 14.4857C7.23042 14.488 7.23555 14.4891 7.24075 14.4891C7.24595 14.4891 7.25108 14.488 7.25575 14.4857L7.26861 14.4728C7.58575 14.0185 7.99718 13.53 8.44718 13.2514C8.8253 13.0114 9.26249 12.8807 9.7103 12.8739C10.1581 12.8671 10.5991 12.9844 10.9843 13.2128C11.2563 13.3807 11.5092 13.5775 11.7386 13.8V13.8257L11.6315 14.01C11.2457 14.7043 10.8515 15.4114 10.3115 15.99C10.29 16.0114 10.2943 16.0243 10.3243 16.0285C11.01 16.1571 11.6957 16.2385 12.39 16.2814L12.4286 16.2685C12.4382 16.2595 12.4443 16.2474 12.4457 16.2343ZM16.0029 9.77568C15.6413 9.30858 15.1444 8.96436 14.58 8.78997C14.5743 8.79255 14.5698 8.79712 14.5672 8.80283L14.3529 9.50997L14.3572 9.53568L14.3786 9.55283C14.7729 9.67283 15.0986 9.89568 15.3643 10.2171C15.3735 10.2283 15.3868 10.2354 15.4012 10.237C15.4156 10.2386 15.43 10.2346 15.4415 10.2257L15.9943 9.85711C16.0243 9.8314 16.0286 9.80568 16.0072 9.7714L16.0029 9.77568ZM18.3086 14.49C17.9258 14.9959 17.4413 15.4159 16.8862 15.723C16.331 16.0301 15.7177 16.2174 15.0857 16.2728C14.6315 16.2857 13.89 16.2857 12.8657 16.2728C12.8486 16.2728 12.8443 16.2643 12.8443 16.2471C12.9815 15.3771 13.2172 14.5757 13.5557 13.8471C13.7529 13.4185 14.0272 13.0028 14.3786 12.6043C15.1117 11.8655 16.0809 11.4074 17.1172 11.31C17.3872 11.28 17.6186 11.2543 17.8029 11.2414C18.2057 11.2071 18.6257 11.2585 19.0372 11.31L19.2557 11.3314C19.2729 11.3314 19.2815 11.3443 19.2815 11.3657C19.2858 12.5228 18.96 13.56 18.3086 14.4857V14.49ZM6.38146 16.6328C7.26861 16.8043 8.11718 16.7057 8.92289 16.3328C9.97289 15.8528 10.6072 14.88 11.1257 13.8728C11.1301 13.8643 11.1327 13.855 11.1334 13.8454C11.1342 13.8358 11.133 13.8262 11.13 13.8171C11.1257 13.7996 11.115 13.7843 11.1 13.7743C9.87432 13.0714 8.75575 13.3585 7.92432 14.4214C7.42718 15.0514 6.96003 15.7157 6.50146 16.3714L6.35575 16.5728C6.33432 16.6071 6.34289 16.6243 6.38146 16.6328Z" fill="white"/>
</g>
<defs>
<linearGradient id="paint0_linear_31_7015" x1="0" y1="24" x2="24" y2="0" gradientUnits="userSpaceOnUse">
<stop stop-color="#0000FE"/>
<stop offset="1" stop-color="#0000AD"/>
</linearGradient>
<clipPath id="clip0_31_7015">
<rect width="24" height="24" fill="white"/>
</clipPath>
</defs>
</svg>

<svg xmlns="http://www.w3.org/2000/svg" width="24" height="24" fill="none" viewBox="0 0 24 24"><g clip-path="url(#a)"><path fill="url(#b)" d="M0 0h24v24H0z"/><path fill="#fff" fill-rule="evenodd" d="M12.446 16.234c.175-1.157.54-2.284 1.157-3.266q1.027-1.542 2.743-1.98a7.4 7.4 0 0 1 2.884-.154c.043.005.056-.008.056-.047A3.62 3.62 0 0 0 17.4 7.8c-1.183-.66-2.721-.643-3.986-.193-1.341.574-1.984 1.62-2.704 2.829-.24.402-.454.741-.737 1.011-.643.6-2.057.772-2.237-.416q0-.03.025-.034h.172q.13.002.236-.008C9.29 10.8 9.78 9.39 9.917 8.413c0-.022-.004-.03-.021-.03-.502.026-.999.043-1.5.06q-.55.014-.776.098c-.377.146-.634.429-.767.866-.004.022-.013.022-.017 0a1.33 1.33 0 0 0-1.115-.964l-1.838-.129c-.017 0-.026.013-.026.03.052.986.489 2.276 1.522 2.559.128.034.295.051.454.068l.214.022c.017 0 .026.013.022.03a4.83 4.83 0 0 0 1.157 3.463q.007.003.015.003l.015-.003.013-.013c.317-.455.728-.943 1.178-1.222a2.43 2.43 0 0 1 2.537-.038q.409.253.755.587v.026l-.107.184c-.386.694-.78 1.401-1.32 1.98q-.033.032.012.039 1.027.19 2.066.252l.039-.012a.06.06 0 0 0 .017-.035m3.557-6.458a2.87 2.87 0 0 0-1.423-.986.03.03 0 0 0-.013.013l-.214.707.004.026.022.017q.59.181.985.664a.056.056 0 0 0 .077.009l.553-.369c.03-.026.035-.051.013-.086zm2.306 4.714a4.54 4.54 0 0 1-3.223 1.783q-.682.02-2.22 0-.024 0-.022-.026.205-1.306.712-2.4.295-.643.823-1.243a4.44 4.44 0 0 1 2.738-1.294c.27-.03.502-.056.686-.069.403-.034.823.018 1.234.069l.219.021q.026.001.026.035a5.25 5.25 0 0 1-.973 3.12zM6.38 16.633a4.07 4.07 0 0 0 2.542-.3c1.05-.48 1.684-1.453 2.203-2.46a.07.07 0 0 0 .004-.056.07.07 0 0 0-.03-.043c-1.226-.703-2.344-.415-3.176.647-.497.63-.964 1.295-1.423 1.95l-.145.202c-.022.034-.013.051.025.06" clip-rule="evenodd"/></g><defs><linearGradient id="b" x1="0" x2="24" y1="24" y2="0" gradientUnits="userSpaceOnUse"><stop stop-color="#0000FE"/><stop offset="1" stop-color="#0000AD"/></linearGradient><clipPath id="a"><path fill="#fff" d="M0 0h24v24H0z"/></clipPath></defs></svg>
